bXQvV9Op45bztJasUHQmQtv+zHc28dhiJCp7o/RgOyKSTIIX6R5ih+4KGXqH7j0etbh6wHh4iAxeQsbbnIHaUJwnlemeCGxmhiAw1yr60U+16bG/0aGvnQ9d4E7m86wwEuH7P1gqnO60EzHkQhrgkoShSNlsxjF/7sJQ6xd8bf+bKj7jhIG4RdIYaVwLeYMeuGLN1duB1tTKuBcIArIgXEWwkbMLAOl8/UuZRsFKxtR/ZpoIq1acTNzfXBsJXXFYmRYp6guBfo71H6up8Em+CLsllJtD4xZ3+8y/VIl7EXPM8ZjPsMtSRms8q9X3m2BqH8hAQJI3PbSHU/hMYPyI3CgjSxJtzi+dD6lsFxQVl9mPdXkhgsg8Fr2zekZ8Mpzrkhueg2cXQliFr6JsWRxGB9bfcTy+CGLhgLGoUdrT0X1+G5u2ze7nTJcT7VWjMeGOmxSXEIscIsgTH12MsFjK2d7eMo73zMRlcQsDdZd+bwBj8mMa+3ZDItjtM7zQp0mqmUkvxcc5GlbSuijgSqBLJZAfi6IaSWMivriuIs0asMG8awFxXpqXqwEsdiJXD+Z1YSHVZFOx3xssCPRUKsD7Qg==